icon/ir/globe.svg

<svg stroke-width="1.5" viewBox="0 0 24 24" fill="none" xmlns="http://www.w3.org/2000/svg" height="1em" width="1em">
  <path d="M12 22C17.5228 22 22 17.5228 22 12C22 6.47715 17.5228 2 12 2C6.47715 2 2 6.47715 2 12C2 17.5228 6.47715 22 12 22Z" stroke="currentColor" stroke-linecap="round" stroke-linejoin="round"/>
  <path d="M2.5 12.5L8 14.5L7 18L8 21" stroke="currentColor" stroke-linecap="round" stroke-linejoin="round"/>
  <path d="M17 20.5L16.5 18L14 17V13.5L17 12.5L21.5 13" stroke="currentColor" stroke-linecap="round" stroke-linejoin="round"/>
  <path d="M19 5.5L18.5 7L15 7.5V10.5L17.5 9.5H19.5L21.5 10.5" stroke="currentColor" stroke-linecap="round" stroke-linejoin="round"/>
  <path d="M2.5 10.5L5 8.5L7.5 8L9.5 5L8.5 3" stroke="currentColor" stroke-linecap="round" stroke-linejoin="round"/>
</svg>

<svg width="24" height="24" stroke-width="1.5" fill="none" xmlns="http://www.w3.org/2000/svg"><path d="M12 22c5.523 0 10-4.477 10-10S17.523 2 12 2 2 6.477 2 12s4.477 10 10 10Z" stroke="currentColor" stroke-linecap="round" stroke-linejoin="round"/><path d="m2.5 12.5 5.5 2L7 18l1 3M17 20.5l-.5-2.5-2.5-1v-3.5l3-1 4.5.5M19 5.5 18.5 7l-3.5.5v3l2.5-1h2l2 1M2.5 10.5l2.5-2L7.5 8l2-3-1-2" stroke="currentColor" stroke-linecap="round" stroke-linejoin="round"/></svg>
